public/assets/img/close.svg

<svg width="25" height="24" viewBox="0 0 25 24" fill="none" xmlns="http://www.w3.org/2000/svg">
<path d="M21.0021 0L12 9L3 0L0 3L9 12L0 21L3 24L12 15L21.0021 24L24.0021 21L15.0021 12L24.0021 3L21.0021 0Z" fill="#797C7E"/>
</svg>

<svg width="25" height="24" fill="none" xmlns="http://www.w3.org/2000/svg"><path d="M21.002 0 12 9 3 0 0 3l9 9-9 9 3 3 9-9 9.002 9 3-3-9-9 9-9-3-3Z" fill="#797C7E"/></svg>
